X:1
T:E minor Oliver Holden, 1806
T:Philip Doddridge, 1755 (Hymn 64)   88. 88. (L. M.)
T:Avon No copyright. Transcribed from The Sacred Minstrel, 1806.
%%score [ 1 2 3 4 ]
L:1/8
M:3/4
K:G
V:1 treble nm="Treble" snm="Tr."
V:2 treble nm="Counter" snm="C."
V:3 treble-8 nm="Tenor" snm="T."
V:4 bass nm="Bass" snm="B."
V:1
 B2 | G4 A2 | (B2 c2) c2 | d4 c2 | B4 d2 | (d2 c2) B2 | B4 B2 | (A2 G2) G2 | (G2 F2) B2 | %9
 (B2 A2) G2 | (G2 F2) A2 | B4 B2 | B4 B2 | e4 d2 | B4 c2 | (G2 ed) c2 | B4 B2 | (e2 ^d2) ef | %18
 g4 c2 | B4 B2 | B4 |] %21
V:2
 E2 | E4 E2 | (G2 E2) E2 | (G2 F2) FE | D4 A2 | (G>F E2) ^D2 | E4 G2 | (E2 D2) D2 | D4 G2 | %9
w: 1.~A-|rise, my|ten- * derest|thoughts, * a- *|rise, To|tor- * * rents|melt my|strea- * ming|eyes; And|
 (G2 F2) D2 | D4 E2 | (E2 ^D2) E2 | (E2 ^D2) E2 | G4 D2 | G4 E2 | (D2 G2) F2 | G4 G2 | (E2 F2) G2 | %18
w: thou, * my|heart, with|an- * guish|feel * Those|e- vils|which thou|canst * not|heal, Those|e- * vils|
 (G2 D2) F2 | G2 (E2 ^D2) | E4 |] %21
w: which * thou|canst not *|heal.|
V:3
 E2 | (B2 c2) A2 | (d2 e2) A2 | (G2 AG) F2 | G4 c2 | (B2 A2) F2 | (G2 E2) dB | (e2 Bc) B2 | %8
 (B2 A2) d2 | (d2 c2) B2 | (B2 A2) c2 | (E2 F2) G2 | (G2 F2) G2 | (B2 c2) A2 | (d2 e2) g2 | %15
 (B2 cB) A2 | G4 e>f | (g2 f2) e^d | (e2 B2) cB/A/ | G4 F2 | E4 |] %21
V:4
 E,2 | E,4 C,2 | (B,,2 A,,2) C,2 | (B,,2 A,,2) D,2 | G,4 F,2 | (G,2 A,2) B,2 | E,4 B,,2 | %7
 (C,2 B,,A,,) G,,2 | D,4 D,2 | D,4 G,2 | D,4 C,2 | B,,4 E,2 | B,,4 B,2 | (G,2 E,2) F,2 | %14
 (G,2 E,2) C,2 | D,4 D,2 | G,4 E,2 | (B,2 A,2) G,F, | (E,>F, G,2) A,2 | B,2 B,,4 | E,4 |] %21

